X: 40
T:Kilfenora March
M:4/4
R:march
L:1/8
Z:Alf 
Z: No name on the CD for this march
D: Set in Stone - Kilfenora Ceili Band
K:G
G>A|Bdg>a g2f>e|dBB>c B2AG|Bdce dBGB|A2A>B A2G>A|
Bdg>a g>a b/2a/2g/2f/2|edB>c B2AG|Bdge dBAB|G2G>A G2:|
f>g|afd>^c d2ga|bge>^d e2ga|bgaf gefd|BAA>B A2G>A|
Bdg>a g2 b/2a/2g/2f/2|edB>c B2AG|Bdge dBAB|G2G>A G2:|
a>b|c'baf gedc|BG/2B/2 dB/2d/2 g2a>b|c'baf gedB|BAA>B A2G>A|
Bdg>a g>a b/2a/2g/2f/2|edB>c B2AG|Bdge dBAB|G2G>A G2:|
